X: 37476
T: Sliding Down The Bannister
R: jig
M: 6/8
K: Dmajor
|:D2A d2f|edc BGE|D2A d2f|ged cBA|
D2A d2f|efe cBA|gfe cBA|DBC D2A:|
|:e2c dcB|GBd cBA|e2c dcB|fff d2A|
e2c dcB|GBd cBA|e2c dcB|a3 d3:|

